X: 20343
M: 3/8
L: 1/16
K: D
d>cd>ef>g | a2(a2f2) | b2(b2g2) | a2(a2f2) |\
d>cd>ef>g | a2(a2f2) | efgedc | "^Fin."d4 H:|\
|: f2 |\
e2a2a2 | f2d2d2 | e2a2a2 | f4f2 |
e2a2a2 | f2d2d2 | efgedc | d4 :|\
|: A2 |\


